X: 3329
T: Belles Of Bedlam, The
R: march
M: 
K: Gmajor
M: 2/4
D|:B>d c/B/A/G/|G/F/G/B/ DD|E2 c/B/A/G/|F/G/A/B/ AD|
B>d c/B/A/G/|G/F/G/B/ DD|Ec/B/ AG/F/|1 G2 GD:|2 G2 G/A/B/c/||
d>e d/c/B/A/|G/F/G/B/ DD|E2 c/B/A/G/|F/G/A/B/ AB/c/|
d>e d/c/B/A/|G/F/G/B/ DD|Ec/B/ AG/F/|G2 G/A/B/c/|
d>e d/c/B/A/|G/F/G/B/ DD|E2 c/B/A/G/|F/G/A/B/ AD|
B>d c/B/A/G/|G/F/G/B/ DD|Ec/B/ AG/F/|G2 G||

